img/manaSymbols/star.svg

﻿<?xml version="1.0" encoding="utf-8"?>
<svg width="100%" height="100%" viewBox="0 0 3693 5125" version="1.1" xmlns="http://www.w3.org/2000/svg" xml:space="preserve" style="fill-rule: evenodd; clip-rule: evenodd; stroke-linejoin: round; stroke-miterlimit: 2;" preserveAspectRatio="xMidYMid meet" zoomAndPan="magnify" contentScriptType="application/ecmascript" contentStyleType="text/css">
  <path d="m534 4853 7.147 22.16 23.287-.05-18.87 13.65 7.245 22.13-18.81-13.73-18.81 13.73 7.245-22.13-18.87-13.65 23.288.05L534 4853z" style="fill: white;" transform="matrix(1,0,0,1,0,-1)" />
</svg>

<?xml version="1.0" encoding="UTF-8" standalone="no"?>
<!DOCTYPE svg PUBLIC "-//W3C//DTD SVG 1.1//EN" "http://www.w3.org/Graphics/SVG/1.1/DTD/svg11.dtd">
<svg width="100%" height="100%" viewBox="0 0 3693 5125" version="1.1" xmlns="http://www.w3.org/2000/svg" xmlns:xlink="http://www.w3.org/1999/xlink" xml:space="preserve" xmlns:serif="http://www.serif.com/" style="fill-rule:evenodd;clip-rule:evenodd;stroke-linejoin:round;stroke-miterlimit:2;">
    <g transform="matrix(1,0,0,1,0,-1)">
        <path d="M534,4853L541.147,4875.16L564.434,4875.11L545.565,4888.76L552.809,4910.89L534,4897.16L515.191,4910.89L522.435,4888.76L503.566,4875.11L526.853,4875.16L534,4853Z" style="fill:white;"/>
    </g>
</svg>
